!!! OTL: Literature30
!!! Chapter: 5
!!! Section: I
!!! Page: 350
!!! Mode: 
!!! Encoder: DJB
**kern
*staff1
*I"Piano
=1-
*clefG2
*k[]
*a:
*M4/4
4r
4r
4r
4e/
=2
4a/
4g/
4f/
4e/
=3
2d/
4e/
4b\
=4
4cc\
4cc\
8b/L
8a/J
4b\
=5
2.a/
4cc\
=6
8b/L
8a/J
4g/
4a/
4b\
=7
2cc\
4cc\
4g/
=8
4a/
4g/
4f/
4f/
=9
2.e/
4cc\
=10
!!linebreak:original
8b\L
8cc\J
4dd\
4cc\
4b\
=11
2a/
4b\
4e/
=12
4f/
4e/
4d/
4g/
=13
2.e/
4e/
=14
4a/
4g/
4f/
4e/
=15
2d/
4e/
4b\
=16
4cc\
4cc\
8b/L
8a/J
4b\
=17
2.a/
4r
==
*-
